X: 1676
T: Early in the Morning
M:4/4
L:1/8
B:O'Neill's 1676
N:"collected by F.O'Neill"
K:A
E2 \
| E>A(3AAAA-cBA | GABcd2c-d | efgedBAG | EDEFGBAG |
| E>A(3AAA A-cBA | GABcd2c-d | efgedBGA | B2AAA2 :|
|: c-d \
| (3eee edcAce | dcBcd2c-d | (3efg fdedce | dcBAGBAG |
| E>A(3AAAA-cBA | GABcd2c-d | efgedBGA | B2AAA2 :|


